docs/img/footer-logo.svg

<svg width="120" height="96" viewBox="0 0 120 96" fill="none" xmlns="http://www.w3.org/2000/svg">
<path d="M113.153 76.3351C114.716 76.3351 115.818 76.8131 116.435 77.7233C117.056 78.794 117.342 80.0255 117.256 81.2595V91.0821C117.346 92.3205 117.06 93.5572 116.435 94.6314C115.832 95.5351 114.742 96 113.153 96C111.565 96 110.488 95.522 109.871 94.6052C109.253 93.5381 108.967 92.3117 109.05 91.0821L109.077 81.2595C108.986 80.0193 109.277 78.7811 109.91 77.7102C110.501 76.8 111.591 76.3351 113.153 76.3351ZM77.1597 76.5773L77.1335 95.7512H74.2779V79.498H71.5536V90.6303C71.5536 92.4595 71.2538 93.8063 70.6543 94.6707C70.0547 95.5351 69.0241 95.9716 67.5624 95.9804V93.086C68.4223 93.086 68.7112 92.3067 68.7112 90.6303V76.5773H77.1597ZM34.4442 76.6166L37.1554 95.7774H34.2932L33.8993 92.3918H31.1882L30.7943 95.7774L27.919 95.7512L30.6433 76.6166H34.4442ZM8.42888 76.6166V95.7643H5.57987V79.498H2.85558V95.7512H0L0 76.6166H8.42888ZM82.1685 76.6166V83.2109H83.0744C84.4792 83.2109 85.4376 83.499 86.1794 84.2194C86.9212 84.9397 87.2888 86.1839 87.2888 88.0109L87.3085 91.069C87.3085 92.752 86.9737 93.9503 86.2779 94.6707C85.4492 95.4373 84.3398 95.8283 83.2122 95.7512H79.2998V76.6166H82.1685ZM42.4333 76.6166C43.9103 76.6166 44.9672 77.003 45.5908 77.7823C46.2709 78.788 46.5986 79.9898 46.523 81.2005V81.8554C46.523 83.8723 45.8665 85.3195 44.8096 85.66C45.8665 86.0005 46.6608 87.081 46.6608 88.9932V90.925C46.6608 92.6538 46.3326 93.8849 45.6761 94.6314C44.8508 95.4317 43.718 95.8354 42.5711 95.7381H38.4486V76.6166H42.4333ZM25.1028 78.1359C26.2713 79.1972 26.9103 80.719 26.849 82.2941V84.2587C26.9293 85.8884 26.2714 87.4679 25.0569 88.561C23.7358 89.6431 22.0573 90.1943 20.3501 90.1064H16.6608V95.7512H11.3698V76.5773H20.3961C22.1054 76.49 23.7852 77.0462 25.1028 78.1359ZM95.4486 76.5773V83.9247H100.989V76.5773H106.346V95.7512H101.028V88.2467H95.488V95.7512H90.1969V76.5773H95.4486ZM54.663 76.5773L54.5645 85.516L54.361 87.1531H54.5383L60.7615 76.5773H65.5799V95.7512H60.5186L60.5842 86.6357L60.814 84.7694H60.6958L54.302 95.7512H49.4114V76.5773H54.663ZM113.153 79.2098C112.142 79.2098 111.932 79.8254 111.932 81.2726V91.0821C111.932 92.5031 112.129 93.1318 113.153 93.1318C114.165 93.1318 114.363 92.5562 114.368 91.1333L114.368 81.2595C114.368 79.8385 114.164 79.2098 113.153 79.2098ZM83.186 86.0791H82.1882V92.8568H83.1335C84.1838 92.8568 84.4464 92.3656 84.4464 90.8922L84.4726 88.4889C84.4951 88.0025 84.4642 87.515 84.3807 87.0352C84.3537 86.8485 84.2865 86.6698 84.1838 86.5113C83.9414 86.214 83.5692 86.0528 83.186 86.0791ZM42.3676 87.0941H41.2976V92.8502H42.558C43.4705 92.8502 43.8249 92.3853 43.8249 90.8333L43.8118 89.2093C43.8118 87.7097 43.4836 87.0941 42.3676 87.0941ZM32.5142 80.6439L31.5098 89.6349H33.5908L32.5142 80.6439ZM19.1751 80.8207H16.6608V85.7844H19.0963C19.7636 85.8369 20.4258 85.6331 20.9475 85.2147C21.3648 84.7961 21.5822 84.2192 21.5449 83.63V82.9031C21.5743 82.379 21.3923 81.865 21.0394 81.4756C20.5365 81.0078 19.8608 80.7704 19.1751 80.8207ZM42.4333 79.3408H41.2976V84.3765H42.4464C42.8526 84.4358 43.2537 84.241 43.4573 83.8854C43.6302 83.3442 43.7036 82.7763 43.674 82.209L43.6608 81.2005C43.6608 79.8319 43.3523 79.3408 42.4333 79.3408ZM64.6411 53.5138C66.2035 53.5138 67.267 54.0049 67.884 54.902C68.5034 55.9168 68.8009 57.0946 68.7374 58.281V59.8003H65.8753V58.3269C65.8753 57.0172 65.6586 56.4016 64.6608 56.4016C63.675 56.4016 63.4709 56.9769 63.4662 58.361L63.4661 68.3329C63.4661 69.7932 63.6696 70.4742 64.674 70.4742C65.6783 70.4742 65.8753 69.8194 65.8753 68.5097V66.8595H68.7374V68.549C68.8198 69.7191 68.5304 70.8854 67.9103 71.8821C67.2998 72.74 66.2166 73.1918 64.628 73.1918C63.0394 73.1918 62.0022 72.7269 61.3982 71.8821C60.7707 70.8356 60.484 69.6208 60.5777 68.4049V58.4251C60.4876 57.1892 60.7785 55.9553 61.4114 54.8889C62.0087 53.9787 63.0788 53.5138 64.6411 53.5138ZM100.385 53.7823V60.3765H101.291C102.696 60.3765 103.654 60.6647 104.396 61.385C105.138 62.1053 105.505 63.3495 105.505 65.1765V68.2477C105.505 69.9329 105.162 71.1334 104.475 71.8494C103.644 72.617 102.532 73.0081 101.403 72.9299H97.5164V53.7823H100.385ZM47.0613 53.7561V72.9299H41.7834V58.0846H36.5777V72.9299H31.3063V53.7561H47.0613ZM52.7396 53.7823L52.6543 64.9146L55.2801 53.7823H58.7593L58.8184 72.9299H55.9694L56.0678 61.3195L53.1138 72.9299H49.8906V53.7823H52.7396ZM17.186 53.7823L17.1007 64.9146L19.7265 53.7823H23.2057L23.2582 72.9299H20.4092L20.5077 61.3195L17.5536 72.9299H14.337V53.7823H17.186ZM82.3063 53.7561L87.7352 72.9299H82.372L81.6039 69.5443H75.9978L75.2298 72.9299H69.8796L75.302 53.7561H82.3063ZM96.3479 53.7823L96.3348 56.6767H93.709V72.9299H90.8403V56.6767H88.2144V53.7823H96.3479ZM101.383 63.2578H100.385V70.0682H101.33C102.381 70.0682 102.643 69.5771 102.643 68.1037L102.67 65.6677C102.692 65.1812 102.661 64.6937 102.578 64.2139C102.551 64.0272 102.483 63.8485 102.381 63.69C102.138 63.3927 101.766 63.2315 101.383 63.2578ZM78.9519 57.8685H78.6499L76.9825 65.2224H80.6192L78.9519 57.8685ZM43.93 29.6185C46.7659 29.6142 48.8993 30.4371 50.3304 32.0873C51.6143 33.6742 52.2706 35.6754 52.175 37.7124V41.5694C52.2031 42.9398 51.9344 44.3001 51.3873 45.5574C50.8385 46.7903 49.9215 47.824 48.7615 48.5173C47.294 49.3453 45.6284 49.7595 43.9431 49.7157C42.251 49.7756 40.575 49.3701 39.0985 48.5435C37.9345 47.855 37.0162 46.8198 36.4726 45.5836C35.9311 44.3453 35.6625 43.0054 35.6849 41.6546V37.7386C35.5822 35.6927 36.239 33.6807 37.5295 32.0873C38.9606 30.4458 41.0941 29.6229 43.93 29.6185ZM68.4092 29.8477C69.9715 29.8477 71.0744 30.3258 71.6915 31.2295C72.3088 32.304 72.5943 33.5364 72.512 34.7722V44.5948C72.6 45.8331 72.3142 47.0693 71.6915 48.1441C71.0875 49.0543 69.9978 49.5192 68.4092 49.5192C66.8206 49.5192 65.744 49.0412 65.1269 48.1244C64.5158 47.0506 64.2393 45.8195 64.3326 44.5883V34.7722C64.2427 33.53 64.5335 32.2899 65.1663 31.2164C65.7571 30.3127 66.8468 29.8477 68.4092 29.8477ZM88.9759 31.6486C90.1448 32.7068 90.7841 34.2269 90.7221 35.8003V37.7648C90.8025 39.3965 90.1447 40.978 88.93 42.0737C87.6059 43.1715 85.9164 43.7325 84.1969 43.6453H80.5339V49.29L75.2429 49.2639V30.0835H84.2691C85.9793 29.9979 87.6593 30.5565 88.9759 31.6486ZM114.88 30.1228V36.7105H115.786C117.19 36.7105 118.149 36.9986 118.891 37.719C119.632 38.4393 120 39.6835 120 41.504L119.974 44.5752C119.974 46.2647 119.63 47.4652 118.943 48.1768C118.115 48.9496 117.002 49.3435 115.871 49.2639H111.985V30.1228H114.88ZM58.4245 30.1228C59.9015 30.1228 60.965 30.5157 61.5821 31.295C62.2602 32.2988 62.5857 33.4986 62.5076 34.7067V35.3615C62.5076 37.3719 61.8512 38.8191 60.7943 39.1596C61.8512 39.5001 62.6455 40.5872 62.6455 42.4993V44.4377C62.6455 46.1839 62.3173 47.4172 61.6608 48.1375C60.839 48.944 59.7042 49.3508 58.5558 49.2508H54.4333V30.1228H58.4245ZM95.5799 30.1097L95.488 41.242L98.1138 30.1097H101.6L101.652 49.2639H98.7965L98.895 37.6535L95.9475 49.2639H92.7243V30.1097H95.5799ZM33.8862 30.0638V32.9582H29.6193V49.2639H26.7637V30.0638H33.8862ZM110.803 30.1228V33.0041H108.177V49.2639H105.295V33.0041H102.67V30.1228H110.803ZM68.4092 32.7291C67.3982 32.7291 67.2013 33.3315 67.2013 34.7853L67.1816 34.7722V44.5752C67.1816 46.0027 67.3851 46.6314 68.4092 46.6314C69.4333 46.6314 69.6171 46.0355 69.6171 44.5752V34.7853C69.6171 33.3577 69.4201 32.7291 68.4092 32.7291ZM58.3589 40.6003H57.2823V46.3629H58.5427C59.4551 46.3629 59.8096 45.898 59.8096 44.3525L59.7965 42.7154C59.7965 41.2158 59.4683 40.6003 58.3589 40.6003ZM115.851 39.5918H114.88V46.3629H115.825C116.875 46.3629 117.138 45.8718 117.138 44.3984V41.9951C117.161 41.5108 117.13 41.0255 117.046 40.5479C117.018 40.3593 116.951 40.1786 116.849 40.0175C116.604 39.7244 116.233 39.5661 115.851 39.5918ZM43.8227 33.9762C42.9531 34.0113 42.1407 34.4182 41.593 35.093C41.1654 35.8382 40.9647 36.6916 41.0153 37.5487V42.0016C40.966 42.8726 41.2161 43.7343 41.7243 44.4442C42.2628 45.1061 43.0905 45.4652 43.9431 45.4068C44.8036 45.4649 45.6379 45.0978 46.175 44.4246C46.6842 43.7101 46.9343 42.844 46.884 41.9689V37.5291C46.938 36.5967 46.6742 35.6736 46.1357 34.9097C45.5351 34.2812 44.6924 33.9411 43.8227 33.9762ZM83.0481 34.3531H80.5339V39.2906H82.9694C83.6367 39.343 84.2988 39.1392 84.8206 38.7209C85.2364 38.3013 85.4536 37.7251 85.4179 37.1361V36.4289C85.4456 35.907 85.2637 35.3957 84.9125 35.0079C84.4096 34.5401 83.7339 34.3028 83.0481 34.3531ZM58.4179 32.8404H57.2823V37.8761H58.4245C58.8307 37.9354 59.2318 37.7406 59.4354 37.385C59.6085 36.8461 59.6819 36.2803 59.6521 35.7151L59.6455 34.7067C59.6455 33.3315 59.3435 32.8404 58.4179 32.8404ZM26.3435 5.63165V21.898H27.8731V26.9926H25.0175V24.7924H18.9387V26.9926H16.0831V21.898H16.372C16.6871 21.898 16.9694 21.4919 17.2057 20.6734C17.4706 19.6628 17.6442 18.6306 17.7243 17.5891C17.9409 15.1203 18.0394 12.907 18.0394 11.0407L18.0263 5.63165H26.3435ZM52.2801 5.64475C53.7571 5.64475 54.8206 6.0311 55.4376 6.81037C56.1248 7.82513 56.4528 9.03961 56.3698 10.2614V10.9162C56.3698 12.9332 55.7133 14.3804 54.6564 14.7209C55.7133 15.0614 56.5142 16.1419 56.5142 18.054V19.9662C56.5142 21.695 56.186 22.9261 55.5295 23.6726C54.7033 24.4714 53.5711 24.8749 52.4245 24.7793H48.2954V5.64475H52.2801ZM63.9847 5.63165L66.6958 24.7924H63.8337L63.4398 21.4068H60.7287L60.3348 24.7924H57.4595L60.1838 5.63165H63.9847ZM74.5864 5.61855L74.4748 13.6731L74.3107 14.8322L79.6871 5.66439V5.61855H85.2867V24.7924H79.2407L79.3063 16.5217L79.4836 15.2578L73.9825 24.7269V24.7924H68.3238V5.61855H74.5864ZM95.0481 5.64475L95.035 8.51296H92.4092V24.7924H89.5405V8.51296H86.9147V5.64475H95.0481ZM103.543 5.64475V8.51296H99.2363V13.5749H102.794V16.4693H99.2363V21.8849H103.543V24.7924H96.3939V5.64475H103.543ZM41.6455 5.61855L46.7659 24.7924H40.372L39.7155 21.695H35.2582L34.6543 24.7924H28.2801L33.3873 5.61855H41.6455ZM52.221 16.1419H51.1444V21.898H52.4114C53.3173 21.898 53.6718 21.433 53.6718 19.881L53.6586 18.257C53.6586 16.7574 53.3304 16.1419 52.221 16.1419ZM23.4814 8.51296H20.8818V11.0014C20.8818 14.1381 20.7899 16.5217 20.6127 18.1653C20.5457 19.4896 20.1191 20.7707 19.3786 21.8718H23.4814V8.51296ZM62.0547 9.68513L61.0503 18.6696H63.1313L62.0547 9.68513ZM37.5295 10.2941L36.1772 17.0259H38.8424L37.5295 10.2941ZM52.2801 8.38854H51.1444V13.4243H52.2932C52.6994 13.4836 53.1005 13.2887 53.3041 12.9332C53.477 12.3919 53.5504 11.824 53.5208 11.2568L53.5077 10.2483C53.5077 8.87967 53.2057 8.38854 52.2801 8.38854ZM75.0525 0C75.0525 0.12442 75.105 0.340518 75.1444 0.654843C75.1565 1.042 75.3706 1.39467 75.709 1.58472C75.9564 1.70214 76.2299 1.75401 76.5033 1.73533C77.1203 1.73533 77.5142 1.57162 77.6915 1.23765C77.7697 1.06537 77.8206 0.882011 77.8424 0.694134C77.8424 0.373261 77.9081 0.150614 77.9278 0.0392907L81.302 0.0392907C81.3677 1.11381 81.0386 2.1754 80.3764 3.02538C79.5886 3.9116 78.2976 4.35471 76.5033 4.35471C74.7527 4.35471 73.4617 3.8985 72.6302 2.98608C71.9587 2.14001 71.6223 1.07731 71.6849 0L75.0525 0Z" fill="#B3B3B3"/>
</svg>

<svg width="120" height="96" fill="none" xmlns="http://www.w3.org/2000/svg"><path d="M113.153 76.335c1.563 0 2.665.478 3.282 1.388a6.19 6.19 0 01.821 3.537v9.822a6.168 6.168 0 01-.821 3.55c-.603.903-1.693 1.368-3.282 1.368-1.588 0-2.665-.478-3.282-1.395a6.197 6.197 0 01-.821-3.523l.027-9.822a6.1 6.1 0 01.833-3.55c.591-.91 1.681-1.375 3.243-1.375zm-35.993.242l-.026 19.174h-2.856V79.498h-2.724V90.63c0 1.83-.3 3.176-.9 4.04-.6.865-1.63 1.302-3.092 1.31v-2.894c.86 0 1.15-.78 1.15-2.456V76.577h8.448zm-42.716.04l2.711 19.16h-2.862l-.394-3.385h-2.71l-.395 3.385-2.875-.026 2.724-19.134h3.801zm-26.015 0v19.147h-2.85V79.498H2.857v16.253H0V76.617h8.429zm73.74 0v6.594h.905c1.405 0 2.364.288 3.105 1.008.742.72 1.11 1.965 1.11 3.792l.02 3.058c0 1.683-.335 2.881-1.031 3.602a4.103 4.103 0 01-3.066 1.08H79.3V76.617h2.868zm-39.736 0c1.477 0 2.534.386 3.158 1.165a5.49 5.49 0 01.932 3.419v.654c0 2.017-.657 3.465-1.713 3.805 1.056.34 1.85 1.421 1.85 3.333v1.932c0 1.729-.327 2.96-.984 3.706a3.977 3.977 0 01-3.105 1.107H38.45V76.617h3.984zm-17.33 1.519a5.337 5.337 0 011.746 4.158v1.965a5.429 5.429 0 01-1.792 4.302 6.87 6.87 0 01-4.707 1.545h-3.69v5.645h-5.29V76.577h9.026a6.838 6.838 0 014.707 1.559zm70.346-1.559v7.348h5.54v-7.348h5.357v19.174h-5.318v-7.504h-5.54v7.504h-5.291V76.577h5.252zm-40.786 0l-.098 8.939-.204 1.637h.177l6.224-10.576h4.818v19.174h-5.061l.065-9.115.23-1.867h-.118l-6.394 10.982h-4.89V76.577h5.251zm58.49 2.633c-1.011 0-1.221.615-1.221 2.063v9.81c0 1.42.197 2.049 1.221 2.049 1.012 0 1.21-.576 1.215-1.999V81.26c0-1.422-.204-2.05-1.215-2.05zm-29.967 6.87h-.998v6.777h.945c1.05 0 1.313-.491 1.313-1.965l.027-2.403a6.679 6.679 0 00-.092-1.454 1.308 1.308 0 00-.197-.524 1.183 1.183 0 00-.998-.432zm-40.818 1.014h-1.07v5.756h1.26c.913 0 1.267-.465 1.267-2.017l-.013-1.624c0-1.5-.328-2.115-1.444-2.115zm-9.854-6.45l-1.004 8.99h2.08l-1.076-8.99zm-13.339.177h-2.514v4.963h2.435a2.63 2.63 0 001.852-.57 2.06 2.06 0 00.597-1.584v-.727a1.962 1.962 0 00-.506-1.427 2.472 2.472 0 00-1.864-.655zm23.258-1.48h-1.135v5.035h1.148a.998.998 0 001.011-.49c.173-.542.247-1.11.217-1.677l-.013-1.008c0-1.37-.309-1.86-1.228-1.86zm22.208-25.827c1.563 0 2.626.49 3.243 1.388a5.882 5.882 0 01.853 3.379v1.52h-2.862v-1.474c0-1.31-.216-1.925-1.214-1.925-.986 0-1.19.575-1.195 1.959v9.972c0 1.46.204 2.141 1.208 2.141s1.201-.655 1.201-1.964v-1.65h2.862v1.689a5.569 5.569 0 01-.827 3.333c-.61.858-1.693 1.31-3.282 1.31s-2.626-.465-3.23-1.31a5.882 5.882 0 01-.82-3.477v-9.98c-.09-1.236.2-2.47.833-3.536.598-.91 1.668-1.375 3.23-1.375zm35.744.268v6.595h.906c1.405 0 2.363.288 3.105 1.008s1.109 1.965 1.109 3.792v3.07c0 1.686-.343 2.886-1.03 3.602a4.11 4.11 0 01-3.072 1.08h-3.887V53.783h2.869zm-53.324-.026V72.93h-5.278V58.085h-5.205V72.93h-5.272V53.756h15.755zm5.679.026l-.086 11.133 2.626-11.133h3.48l.058 19.148H55.97l.099-11.61-2.954 11.61H49.89V53.782h2.849zm-35.554 0l-.085 11.133 2.626-11.133h3.479l.052 19.148H20.41l.099-11.61-2.954 11.61h-3.217V53.782h2.849zm65.12-.026l5.43 19.174h-5.364l-.768-3.386h-5.606l-.768 3.386h-5.35l5.422-19.174h7.004zm14.042.026l-.013 2.895h-2.626V72.93H90.84V56.677h-2.626v-2.895h8.134zm5.035 9.476h-.998v6.81h.945c1.051 0 1.313-.49 1.313-1.964l.027-2.436a6.743 6.743 0 00-.092-1.454 1.318 1.318 0 00-.197-.524 1.184 1.184 0 00-.998-.432zm-22.431-5.39h-.302l-1.668 7.354h3.637l-1.667-7.353zM43.93 29.618c2.836-.004 4.97.82 6.4 2.47a8.322 8.322 0 011.845 5.624v3.857a9.506 9.506 0 01-.788 3.988 6.554 6.554 0 01-2.626 2.96 9.314 9.314 0 01-4.818 1.199 9.248 9.248 0 01-4.844-1.172 6.461 6.461 0 01-2.626-2.96 9.416 9.416 0 01-.788-3.93V37.74a8.316 8.316 0 011.844-5.652c1.432-1.641 3.565-2.464 6.401-2.469zm24.48.23c1.562 0 2.664.478 3.282 1.382a6.274 6.274 0 01.82 3.542v9.823a6.203 6.203 0 01-.82 3.55c-.604.91-1.694 1.374-3.283 1.374-1.588 0-2.665-.478-3.282-1.395a6.201 6.201 0 01-.794-3.536v-9.816a6.13 6.13 0 01.833-3.556c.591-.903 1.68-1.368 3.243-1.368zm20.566 1.8a5.318 5.318 0 011.746 4.152v1.965a5.442 5.442 0 01-1.792 4.309 6.87 6.87 0 01-4.733 1.571h-3.663v5.645l-5.291-.026v-19.18h9.026a6.837 6.837 0 014.707 1.565zm25.904-1.525v6.588h.906c1.404 0 2.363.288 3.105 1.008.741.72 1.109 1.965 1.109 3.785l-.026 3.071c0 1.69-.344 2.89-1.031 3.602a4.082 4.082 0 01-3.072 1.087h-3.886V30.123h2.895zm-56.455 0c1.477 0 2.54.393 3.157 1.172a5.465 5.465 0 01.926 3.412v.654c0 2.01-.657 3.458-1.714 3.799 1.057.34 1.852 1.427 1.852 3.34v1.938c0 1.746-.329 2.98-.985 3.7a3.945 3.945 0 01-3.105 1.113h-4.123V30.123h3.992zm37.155-.013l-.092 11.132 2.626-11.132h3.486l.052 19.154h-2.856l.099-11.61-2.947 11.61h-3.224V30.11h2.856zm-61.694-.046v2.894H29.62v16.306h-2.855v-19.2h7.122zm76.917.059v2.881h-2.626v16.26h-2.882v-16.26h-2.625v-2.881h8.133zm-42.394 2.606c-1.01 0-1.208.602-1.208 2.056l-.02-.013v9.803c0 1.428.204 2.056 1.228 2.056s1.208-.596 1.208-2.056v-9.79c0-1.427-.197-2.056-1.208-2.056zM58.36 40.6h-1.077v5.763h1.26c.913 0 1.268-.465 1.268-2.01l-.014-1.638c0-1.5-.328-2.115-1.437-2.115zm57.492-1.008h-.971v6.77h.945c1.05 0 1.313-.49 1.313-1.964v-2.403a6.558 6.558 0 00-.092-1.447 1.367 1.367 0 00-.197-.53 1.196 1.196 0 00-.998-.426zm-72.028-5.616a3.029 3.029 0 00-2.23 1.117 4.412 4.412 0 00-.578 2.456v4.453c-.049.87.201 1.732.71 2.442a2.629 2.629 0 002.218.963 2.629 2.629 0 002.232-.982c.51-.715.76-1.581.709-2.456v-4.44a4.131 4.131 0 00-.748-2.62 3.03 3.03 0 00-2.313-.933zm39.225.377h-2.514v4.938h2.435a2.63 2.63 0 001.852-.57c.415-.42.633-.996.597-1.585v-.707a1.962 1.962 0 00-.506-1.421 2.472 2.472 0 00-1.864-.655zm-24.63-1.513h-1.136v5.036h1.143a.998.998 0 001.01-.491 4.658 4.658 0 00.217-1.67l-.007-1.008c0-1.376-.302-1.867-1.227-1.867zM26.343 5.632v16.266h1.53v5.095h-2.856v-2.2H18.94v2.2h-2.856v-5.095h.289c.315 0 .597-.406.834-1.225.265-1.01.438-2.042.518-3.084.217-2.469.315-4.682.315-6.548l-.013-5.41h8.317zm25.937.013c1.477 0 2.54.386 3.158 1.165a5.49 5.49 0 01.932 3.451v.655c0 2.017-.657 3.464-1.714 3.805 1.057.34 1.858 1.42 1.858 3.333v1.912c0 1.729-.328 2.96-.985 3.707a3.99 3.99 0 01-3.105 1.106h-4.129V5.645h3.985zm11.705-.013l2.71 19.16h-2.861l-.394-3.385h-2.711l-.394 3.385h-2.876l2.725-19.16h3.8zm10.601-.013l-.111 8.054-.164 1.16 5.376-9.169V5.62h5.6v19.173H79.24l.065-8.27.178-1.264-5.501 9.469v.065h-5.66V5.62h6.263zm20.462.026l-.013 2.868h-2.626v16.28H89.54V8.512h-2.625V5.645h8.133zm8.495 0v2.868h-4.307v5.062h3.558v2.894h-3.558v5.416h4.307v2.907h-7.15V5.645h7.15zm-61.898-.026l5.12 19.173h-6.393l-.657-3.097h-4.457l-.604 3.097H28.28L33.387 5.62h8.258zm10.576 10.523h-1.077v5.756h1.267c.906 0 1.26-.465 1.26-2.017l-.012-1.624c0-1.5-.329-2.115-1.438-2.115zm-28.74-7.629h-2.6v2.488c0 3.137-.091 5.52-.268 7.164a7.303 7.303 0 01-1.234 3.707h4.102V8.513zm38.574 1.172L61.05 18.67h2.081l-1.076-8.985zm-24.526.61l-1.352 6.73h2.665l-1.313-6.73zM52.28 8.388h-1.136v5.035h1.15a.999.999 0 001.01-.49c.173-.542.246-1.11.217-1.677l-.013-1.009c0-1.368-.302-1.86-1.228-1.86zM75.052 0c0 .124.053.34.092.655.012.387.227.74.565.93.247.117.52.169.794.15.617 0 1.011-.163 1.189-.497.078-.173.129-.356.15-.544 0-.32.066-.543.086-.655h3.374a4.42 4.42 0 01-.926 2.986c-.787.887-2.078 1.33-3.873 1.33-1.75 0-3.041-.457-3.873-1.369A4.393 4.393 0 0171.685 0h3.367z" fill="#B3B3B3"/></svg>
